build/svg/cmd/sc_beziersymmetric.svg

<?xml version="1.0" encoding="UTF-8" standalone="no"?>
<svg
   xmlns:dc="http://purl.org/dc/elements/1.1/"
   xmlns:cc="http://creativecommons.org/ns#"
   xmlns:rdf="http://www.w3.org/1999/02/22-rdf-syntax-ns#"
   xmlns:svg="http://www.w3.org/2000/svg"
   xmlns="http://www.w3.org/2000/svg"
   xmlns:sodipodi="http://sodipodi.sourceforge.net/DTD/sodipodi-0.dtd"
   xmlns:inkscape="http://www.inkscape.org/namespaces/inkscape"
   viewBox="0 0 16 16"
   version="1.1"
   id="svg6"
   sodipodi:docname="sc_beziersymmetric.svg"
   inkscape:version="0.92.5 (2060ec1f9f, 2020-04-08)"
   inkscape:export-filename="/home/jupiter007/Libreoffice yaru theme fullcolor/build/cmd/sc_beziersymmetric.png"
   inkscape:export-xdpi="95"
   inkscape:export-ydpi="95">
  <metadata
     id="metadata12">
    <rdf:RDF>
      <cc:Work
         rdf:about="">
        <dc:format>image/svg+xml</dc:format>
        <dc:type
           rdf:resource="http://purl.org/dc/dcmitype/StillImage" />
      </cc:Work>
    </rdf:RDF>
  </metadata>
  <defs
     id="defs10" />
  <sodipodi:namedview
     pagecolor="#ffffff"
     bordercolor="#666666"
     borderopacity="1"
     objecttolerance="10"
     gridtolerance="10"
     guidetolerance="10"
     inkscape:pageopacity="0"
     inkscape:pageshadow="2"
     inkscape:window-width="1920"
     inkscape:window-height="1011"
     id="namedview8"
     showgrid="true"
     inkscape:zoom="29.5"
     inkscape:cx="-0.79062293"
     inkscape:cy="9.2513855"
     inkscape:window-x="1920"
     inkscape:window-y="32"
     inkscape:window-maximized="1"
     inkscape:current-layer="svg6">
    <inkscape:grid
       type="xygrid"
       id="grid832" />
  </sodipodi:namedview>
  <path
     d="m 7.0112499,3.6562499 c -2.7585,0.880728 -5.378105,5.365866 -5.5,10.8437501 h 1 c 0.109851,-4.8398881 2.301416,-8.8264211 4.5,-9.7812501 z m 2,0 v 1.0625 C 11.209833,5.6735789 13.401398,9.6601119 13.51125,14.5 h 1 C 14.389355,9.0221159 11.76975,4.5369779 9.0112499,3.6562499 Z"
     id="path2"
     style="fill:#1463a5;fill-opacity:1;stroke:#1463a5;stroke-opacity:1"
     inkscape:connector-curvature="0"
     sodipodi:nodetypes="cccccccccc" />
  <path
     sodipodi:nodetypes="sssssccccss"
     id="path843"
     d="m 15,1.9999998 c 0.554,0 1,0.446 1,1 v 2 c 0,0.554 -0.446,1 -1,1 h -2 c -0.554,0 -1,-0.446 -1,-1 h -2 v -2 h 2 c 0,-0.554 0.446,-1 1,-1 z"
     style="opacity:1;fill:#808080;fill-opacity:1;fill-rule:nonzero;stroke:none;stroke-width:2;stroke-linecap:round;stroke-linejoin:round;stroke-miterlimit:4;stroke-dasharray:none;stroke-opacity:1"
     inkscape:connector-curvature="0" />
  <path
     inkscape:connector-curvature="0"
     style="opacity:1;fill:#808080;fill-opacity:1;fill-rule:nonzero;stroke:none;stroke-width:2;stroke-linecap:round;stroke-linejoin:round;stroke-miterlimit:4;stroke-dasharray:none;stroke-opacity:1"
     d="M 1,2 C 0.4459999,2 0,2.446 0,3 V 5 C 0,5.554 0.4459999,6 1,6 H 3 C 3.5540001,6 4,5.554 4,5 H 6 V 3 H 4 C 4,2.446 3.5540001,2 3,2 Z"
     id="rect878"
     sodipodi:nodetypes="sssssccccss" />
  <rect
     y="4.999999"
     x="1.0000001"
     height="6"
     width="6"
     id="rect832"
     style="opacity:0.7;vector-effect:none;fill:#000000;fill-opacity:1;stroke:none;stroke-width:1.49999988;stroke-linecap:round;stroke-linejoin:round;stroke-miterlimit:4;stroke-dasharray:none;stroke-dashoffset:0;stroke-opacity:1"
     transform="matrix(0,1,1,0,0,0)" />
  <path
     style="opacity:1;fill:#ffffff;fill-opacity:1;fill-rule:nonzero;stroke:none;stroke-width:2;stroke-linecap:round;stroke-linejoin:round;stroke-miterlimit:4;stroke-dasharray:none;stroke-opacity:1"
     d="M 1,3 H 3 V 4.9570312 H 1 Z"
     id="rect858"
     inkscape:connector-curvature="0"
     sodipodi:nodetypes="ccccc" />
  <rect
     y="5.999999"
     x="2"
     height="4"
     width="4"
     id="rect834"
     style="opacity:1;vector-effect:none;fill:#aee3f8;fill-opacity:1;stroke:none;stroke-width:2;stroke-linecap:round;stroke-linejoin:round;stroke-miterlimit:4;stroke-dasharray:none;stroke-dashoffset:0;stroke-opacity:1"
     transform="matrix(0,1,1,0,0,0)" />
  <path
     sodipodi:nodetypes="ccccc"
     inkscape:connector-curvature="0"
     id="path845"
     d="M 15,3.0429688 H 13 V 5 h 2 z"
     style="opacity:1;fill:#ffffff;fill-opacity:1;fill-rule:nonzero;stroke:none;stroke-width:2;stroke-linecap:round;stroke-linejoin:round;stroke-miterlimit:4;stroke-dasharray:none;stroke-opacity:1" />
</svg>

<svg xmlns="http://www.w3.org/2000/svg" viewBox="0 0 16 16"><path d="M7.011 3.656c-2.758.881-5.378 5.366-5.5 10.844h1c.11-4.84 2.302-8.826 4.5-9.781zm2 0V4.72c2.199.955 4.39 4.941 4.5 9.781h1c-.122-5.478-2.741-9.963-5.5-10.844z" fill="#1463a5" stroke="#1463a5"/><path d="M15 2c.554 0 1 .446 1 1v2c0 .554-.446 1-1 1h-2c-.554 0-1-.446-1-1h-2V3h2c0-.554.446-1 1-1zM1 2c-.554 0-1 .446-1 1v2c0 .554.446 1 1 1h2c.554 0 1-.446 1-1h2V3H4c0-.554-.446-1-1-1z" fill="gray"/><path opacity=".7" d="M5 1v6h6V1z"/><path d="M1 3h2v1.957H1z" fill="#fff"/><path fill="#aee3f8" d="M6 2v4h4V2z"/><path d="M15 3.043h-2V5h2z" fill="#fff"/></svg>
